dist/release/static/symbols/bridges/removed.svg

<?xml version="1.0" encoding="UTF-8" standalone="no"?>
<!-- Created with Inkscape (http://www.inkscape.org/) -->
<svg
   xmlns:dc="http://purl.org/dc/elements/1.1/"
   xmlns:cc="http://creativecommons.org/ns#"
   xmlns:rdf="http://www.w3.org/1999/02/22-rdf-syntax-ns#"
   xmlns:svg="http://www.w3.org/2000/svg"
   xmlns="http://www.w3.org/2000/svg"
   xmlns:sodipodi="http://sodipodi.sourceforge.net/DTD/sodipodi-0.dtd"
   xmlns:inkscape="http://www.inkscape.org/namespaces/inkscape"
   width="64px"
   height="64px"
   id="svg2410"
   sodipodi:version="0.32"
   inkscape:version="0.46"
   sodipodi:docname="removed.svg"
   inkscape:output_extension="org.inkscape.output.svg.inkscape">
  <defs
     id="defs2412">
    <inkscape:perspective
       sodipodi:type="inkscape:persp3d"
       inkscape:vp_x="0 : 32 : 1"
       inkscape:vp_y="0 : 1000 : 0"
       inkscape:vp_z="64 : 32 : 1"
       inkscape:persp3d-origin="32 : 21.333333 : 1"
       id="perspective2418" />
  </defs>
  <sodipodi:namedview
     id="base"
     pagecolor="#ffffff"
     bordercolor="#666666"
     borderopacity="1.0"
     inkscape:pageopacity="0.0"
     inkscape:pageshadow="2"
     inkscape:zoom="5.5"
     inkscape:cx="9.0909091"
     inkscape:cy="32"
     inkscape:current-layer="layer1"
     showgrid="true"
     inkscape:document-units="px"
     inkscape:grid-bbox="true"
     inkscape:window-width="1920"
     inkscape:window-height="1147"
     inkscape:window-x="-4"
     inkscape:window-y="-4" />
  <metadata
     id="metadata2415">
    <rdf:RDF>
      <cc:Work
         rdf:about="">
        <dc:format>image/svg+xml</dc:format>
        <dc:type
           rdf:resource="http://purl.org/dc/dcmitype/StillImage" />
      </cc:Work>
    </rdf:RDF>
  </metadata>
  <g
     id="layer1"
     inkscape:label="Layer 1"
     inkscape:groupmode="layer">
    <path
       id="path2388"
       d="M 7.9813443,55.98859 L 8.8817842e-16,47.977189 L 7.9860465,39.991145 L 15.972093,32.005093 L 7.9860465,23.988973 L 8.8817842e-16,15.972845 L 7.9864224,7.986422 L 15.972845,6.2172489e-15 L 23.983892,7.980988 L 31.994941,15.96198 L 40.005989,7.980988 L 48.017037,6.2172489e-15 L 56.003459,7.986422 L 63.989882,15.972845 L 56.008894,23.983893 L 48.027905,31.994942 L 56.013953,40.01107 L 64,48.02719 L 55.988595,56.00854 L 47.977189,63.989882 L 39.991143,56.003838 L 32.005096,48.017785 L 23.983892,56.008893 L 15.962688,64 L 7.9813443,55.98859 z"
       style="fill:#000000;fill-opacity:1" />
  </g>
</svg>

<svg xmlns="http://www.w3.org/2000/svg" width="64" height="64"><path d="M7.981 55.989L0 47.977l7.986-7.986 7.986-7.986-7.986-8.016L0 15.973l7.986-7.987L15.973 0l8.01 7.981 8.012 7.981 8.011-7.981L48.017 0l7.986 7.986 7.987 7.987-7.981 8.01-7.981 8.012 7.986 8.016L64 48.027l-8.011 7.982-8.012 7.98-7.986-7.985-7.986-7.986-8.021 7.99L15.963 64 7.98 55.989z"/></svg>
